!!!SOCIAL_FUNCTION:	love songs
!!!PDT:	1913
!!!OTL: No_160_Love_Song.krn
!!!REG: Great_Lakes
!!!LANG: Non-Tone
!!!LING_GROUP: Algonquin
**kern
*staff1
=1-
*clefG2
*k[]
*M5/4
4g/
8g/L
8g/J
4g/
4g/
4g/
=2||
*M4/4
2.e/
4c/
=3||
*M5/4
[2e/
2e/]
4c/
=4
[2.c/
2c/]
=5
4e/
8e/L
8e/J
4e/
4e/
4e/
=6||
*M4/4
4.d#/
8e/
4e/
8c/L
8c/J
=7
4.e/
8c/
16c/LK
8.e/J
4A/
*clefF4
=8
[2G\
2G\]
=9||
*M5/4
4c\
8c\L
8c\J
4c\
4c\
4c\
=10||
*M4/4
2A-\
4G\
8E\L
8E\J
=11
4.G\
8E\
4G\
4E\
=12||
*M5/4
[2.C/
2C/]
*clefG2
=13
4g/
8g/L
8g/J
4g/
[2e/
=14||
*M3/4
8e/L]
8c/J
4c/
4c/
*clefF4
=15||
*M4/4
4.e\
8c\
4e\
4A\
=16||
*M5/4
[2.G\
2G\]
=17||
*M3/4
4c\
4c\
4c\
=18||
*M4/4
2A-\
4G\
4E\
=19
4.G\
8E\
4G\
4E\
=20
1C
==
*-
